packages/katcn/src/icons/svg/paragraph.svg

<svg width="24" height="25" viewBox="0 0 24 25" fill="none" xmlns="http://www.w3.org/2000/svg">
<path d="M18.0066 20.296H17.7086V4.29602H18.0066C18.6026 4.29602 19 3.89602 19 3.29602C19 2.69602 18.6026 2.29602 18.0066 2.29602H13.1391H9.36424C6.38411 2.29602 4 4.69602 4 7.69602C4 10.696 6.38411 13.096 9.36424 13.096H12.1457V20.296H11.4503C10.8543 20.296 10.457 20.696 10.457 21.296C10.457 21.896 10.8543 22.296 11.4503 22.296H15.5232H16.7152H18.0066C18.6026 22.296 19 21.896 19 21.296C19 20.696 18.5033 20.296 18.0066 20.296ZM9.36424 11.196C7.47682 11.196 5.98675 9.59602 5.98675 7.69602C5.98675 5.79602 7.47682 4.29602 9.36424 4.29602H12.1457V11.196H9.36424ZM15.5232 20.296H14.0331V12.196V4.29602H15.6225V20.296H15.5232Z" fill="black"/>
</svg>

<svg xmlns="http://www.w3.org/2000/svg" fill="none" viewBox="0 0 24 25"><path fill="#000" d="M18.007 20.296h-.298v-16h.298c.596 0 .993-.4.993-1s-.397-1-.993-1H9.364c-2.98 0-5.364 2.4-5.364 5.4s2.384 5.4 5.364 5.4h2.782v7.2h-.696c-.596 0-.993.4-.993 1s.397 1 .993 1h6.557c.596 0 .993-.4.993-1s-.497-1-.993-1m-8.643-9.1c-1.887 0-3.377-1.6-3.377-3.5s1.49-3.4 3.377-3.4h2.782v6.9zm6.16 9.1h-1.49v-16h1.588v16z"/></svg>
